X:1
T:Caro mea
T:Caro mea
T:Mathieu Gascogne
C:Mathieu Gascogne
%%score [ 1 2 3 4 ]
L:1/8
Q:1/4=120
M:2/2
K:F
V:1 treble nm="Soprano" snm="S"
V:2 treble nm="Alto" snm="A"
V:3 treble-8 nm="Tenor" snm="T"
V:4 bass nm="Bass" snm="B"
V:1
 c8 | c4 d4 | e8 | f6 e2 | (d4 c4) | B8 | A8 | z4 A4 | c4 d4 | f3 e dc d2- | dc c4 =B2 | c8 | z8 | %13
w: Ca-|ro me-|a|ve- re|est _|ci-|bus,|et|san- guis|me- * * * *||us||
 z8 | z8 | z4 A4- | A4 A4 | B3 A GF A2- | A2 GF G2 A2- | A2 GF E2 c2- | cBAG A2 G2- | GF F4 E2 | %22
w: ||ve-|* re|est _ _ _ _|_ _ _ _ po-|* * * tus, ve-|* * * * re est|_ _ _ po-|
 F8 | z8 | z8 | z8 | z8 | z8 | z8 | z8 | z4 G4 | A4 c4 | B2 A3 Bcd | e2 f4 ed | c2 d4 cB | %35
w: tus.||||||||et|bi- bit|me- um _ _ _|_ _ _ _|san- * * *|
 A3 B c2 d2- | d2 c2 B4 | A4 z4 | z8 | z8 | z8 | z2 c2 d2 =B2 | c4 A4 | G2 A4 c2 | B2 AG A2 c2- | %45
w: |* * gui-|nem||||in me ma-|net et|e- go in|il- * * * lo,|
 cBAG F2 A2- | AG F4 E2 | F8 | z4 A4- | A4 c4 | c4 B4 | A4 c4- | c2 B2 A4- | A2 GF G4 | A8- | A8 | %56
w: _ _ _ _ _ il-||lo.|Sic-|* ut|mi- sit|me vi-|* vens Pa-||ter.|_|
 z8 | z8 | z8 | z4 z2 A2 | G2 E2 F3 G | A2 F2 G4 | F3 G AB c2- | cBAG Bc d2- | dc c4 B2 | c4 z4 | %66
w: |||et|qui man- du- *|* cat me,|man- * * * du-||* * * cat|me|
 z8 | z2 A2 G2 B2 | A2 F2 c4 | B2 A2 c3 B | A2 GF G4 | F4 z2 c2 | c2 d2 f4 | e2 c2 d2 cB | %74
w: |et ip- se|vi- vet pro-||* pter _ _|me, et|ip- se vi-|vet pro- * * *|
 A2 G3 F F2- | F2 E2 F4 | z2 c2 c2 d2 | f4 e2 c2 | d2 cB A2 G2- | GF F4 E2 | F8 |] %81
w: |* pter me,|et ip- se|vi- vet pro-||* * * pter|me.|
V:2
 F8 | F4 F4 | G8 | A6 A2 | A8 | G8 | F8 | z2 (F4 ED | E2) F3 EFG | A2 B3 AGF | G2 E2 D4 | C8 | z8 | %13
w: Ca-|ro me-|a|ve- re|est|ci-|bus,|et _ _|_ san- * * *||* guis me-|us||
 z8 | z8 | z4 F4- | F4 F4 | D2 E4 DC | D4 G,2 C2- | C2 =B,2 C4 | z2 C3 D _E2 | D2 B,2 C4 | C8 | %23
w: ||ve-|* re|est _ _ _|_ _ po-|* * tus,|ve- re est|po- * *|tus.|
 z8 | z8 | z8 | z8 | z8 | z8 | z8 | z8 | z4 C4 | D4 F4 | E2 D3 EFG | A2 B4 AG | F3 G A2 B2- | %36
w: ||||||||et|bi- bit|me- um _ _ _|san- * * *||
 BA A4 G2 | A4 z4 | z8 | z8 | z8 | z4 z2 F2 | G2 E2 F3 E | D2 C2 A,4 | z2 C4 B,A, | %45
w: * * * gui-|nem||||in|me ma- net _|_ _ _|et e- *|
 G,3 A, B,2 A,2 | D4 C4 | C8 | z4 F4- | F4 A4 | A4 F4 | F8 | F4 F4- | F2 E2 D4 | E8 | z2 E4 F2 | %56
w: * * * go|in il-|lo.|Sic-|* ut|mi- sit|me|vi- vens|_ Pa- *|ter,|et _|
 D2 C2 F4 | E2 F4 ED | C2 D4 CB, | A,3 B, C2 D2- | D2 ^C2 D4 | z8 | z8 | z8 | z8 | z8 | z8 | z8 | %68
w: e- go vi-|vo pro- * *||* pter Pa- *|* * trem,||||||||
 z4 z2 E2 | D2 F2 E2 C2- | C2 F4 E2 | F4 z2 F2 | G2 G2 A4 | G2 E2 F4- | F2 E2 D2 B,2 | C4 C4 | %76
w: et|ip- se vi- vet|_ pro- pter|me, et|ip- se vi-|vet pro- *||pter me,|
 z2 F2 G2 G2 | A4 G2 E2 | F6 E2 | D2 B,2 C4 | C8 |] %81
w: et ip- se|vi- vet pro-||* * pter|me.|
V:3
 F8 | A4 A4 | c8 | c6 c2 | f8 | d8 | d8- | d8 | z8 | z8 | z8 | z4 A4 | c4 d4 | f3 e dc d2- | %14
w: Ca-|ro me-|a|ve- re|est|ci-|bus,|_||||et|san- guis|me- * * * *|
 dc c4 =B2 | c4 c4- | c4 d4 | B4 c3 B | AG B4 AG | F4 G4 | A3 B cA B2 | A2 F2 G4 | F4 z4 | c8 | %24
w: |us ve-|* re|est po- *||* tus,|ve- * * * *|re est po-|tus:|qui|
 d4 B4 | c8 | f4 e4 | d4 c2 d2- | d2 cB A2 F2- | FGAB c2 F2- | F2 f4 e2 | f8 | z8 | z8 | z8 | z8 | %36
w: man- du-|cat|car- nem|me- * *|* * * * am,|_ _ _ _ _ me-||am|||||
 z8 | z2 f2 g2 e2 | f4 d4 | c3 d e2 f2 | f2 ed c2 d2- | dc c2 f4 | e2 c4 d2 | B2 c4 BA | %44
w: |in me ma-|net et|e- * * go|in _ _ _ il-||lo, in me|ma- * * *|
 G4 F2 f2- | f2 e2 d2 cB | A2 B2 G4 | F8 | z4 c4- | c4 f4 | e4 d4 | c8 | z4 c4 | d4 G4 | c8 | z8 | %56
w: * net, et|_ e- go _ _|_ in il-|lo.-|Sic-|* ut|mi- sit|me|vi-|vens Pa-|ter,||
 z8 | z8 | z8 | z8 | z4 z2 d2 | c2 A2 B3 c | d2 B2 c3 d | e2 f2 d2 f2- | fedc d4 | c4 z2 e2 | %66
w: ||||et|qui man- du- *|* cat me, _|_ man- du- cat|_ _ _ _ _|me et|
 d2 f2 e2 c2- | c2 f4 e2 | f2 c4 A2 | B2 d2 c4 | F4 z4 | z4 z2 A2 | G2 B2 A2 F2 | c4 B2 A2 | %74
w: ip- se vi- vet|_ pro- *||* * pter|me,|et|ip- se vi- vet|pro- * *|
 c3 B A2 GF | G4 F4 | z2 A2 G2 B2 | A2 F2 c4 | B2 A2 c3 B | A2 GF G4 | F8 |] %81
w: * * * pter _|_ me,|et ip- se|vi- vet pro-||* pter _ _|me.|
V:4
 F,8 | F,4 D,4 | C,8 | F,6 F,2 | F,8 | G,8 | D,8- | D,8 | z8 | z8 | z8 | z2 F,4 E,D, | %12
w: Ca-|ro me-|a|ve- re|est|ci-|bus,|_||||et _ _|
 E,2 F,3 E,F,G, | A,2 B,3 A,G,F, | G,2 E,2 D,4 | C,4 F,4- | F,4 D,4 | G,3 F, E,D, F,2- | %18
w: _ san- * * *||* guis me-|us ve-|* re|est _ _ _ _|
 F,2 E,D, E,2 F,2 | D,4 C,4 | F,6 _E,2 | F,2 D,2 C,4 | F,8 | z4 F,4- | F,4 G,4 | E,4 F,4- | %26
w: _ _ _ _ po-|* tus,|ve- re|est po- *|tus:|qui|_ man-|du- cat|
 F,2 E,D, C,4 | F,3 G, A,2 B,2- | B,2 A,G, F,3 G, | A,B, C2 F,2 C2- | C2 B,A, G,4 | F,8 | z8 | z8 | %34
w: _ _ _ _|car- * * *||* * * nem me-||am|||
 z8 | z8 | z2 F,2 G,2 E,2 | F,4 C4 | A,2 B,4 A,G, | A,2 C3 B,A,G, | F,2 A,3 G,F,E, | F,2 E,2 D,4 | %42
w: ||in me ma-|net et|e- * * *||* go _ _ _|_ in il-|
 C,4 z4 | z4 z2 F,2 | G,2 E,2 F,4 | C,4 D,2 F,2- | F,2 B,,2 C,4 | F,8 | z4 F,4- | F,4 F,4 | %50
w: lo,|in|me ma- net|et e- go|_ in il-|lo.|Sic-|* ut|
 A,4 B,4 | F,8 | F,4 F,4 | B,8 | A,8- | A,8 | z2 A,4 B,2 | G,2 F,2 B,4 | A,2 B,4 A,G, | %59
w: mi- sit|me|vi- vens|Pa-|ter,|_|et _|e- go vi-|vo pro- * *|
 F,2 A,4 G,F, | E,4 D,4 | z8 | z8 | z8 | z2 A,2 G,2 B,2 | A,2 F,2 C4 | B,2 A,2 C3 B, | %67
w: * pter Pa- *|* trem,||||et ip- se|vi- vet pro-||
 A,2 G,F, G,4 | F,4 z4 | z8 | z8 | z4 z2 F,2 | C,2 G,2 F,4 | C,2 E,2 D,2 F,2- | F,E, C,2 D,4 | %75
w: * pter _ _|me,|||et|ip- se vi-|vet pro- * *||
 C,4 F,4 | z2 F,2 C,2 G,2 | F,4 C,2 E,2 | D,2 F,3 E, C,2 | D,4 C,4 | F,8 |] %81
w: pter me,|et ip- se|vi- vet pro-||* pter|me.|

